bicons/scalable/emblems/active-directory.svg

<?xml version="1.0" encoding="UTF-8" standalone="no"?>
<!-- Created with Inkscape (http://www.inkscape.org/) -->

<svg
   xmlns:dc="http://purl.org/dc/elements/1.1/"
   xmlns:cc="http://creativecommons.org/ns#"
   xmlns:rdf="http://www.w3.org/1999/02/22-rdf-syntax-ns#"
   xmlns:svg="http://www.w3.org/2000/svg"
   xmlns="http://www.w3.org/2000/svg"
   xmlns:xlink="http://www.w3.org/1999/xlink"
   xmlns:sodipodi="http://sodipodi.sourceforge.net/DTD/sodipodi-0.dtd"
   xmlns:inkscape="http://www.inkscape.org/namespaces/inkscape"
   width="210mm"
   height="297mm"
   viewBox="0 0 744.09448819 1052.3622047"
   id="svg2"
   version="1.1"
   inkscape:version="0.91 r13725"
   inkscape:export-xdpi="4"
   inkscape:export-ydpi="4"
   sodipodi:docname="active-directory.svg">
  <title
     id="title4175">active directory</title>
  <defs
     id="defs4">
    <linearGradient
       gradientTransform="matrix(0.49854025,0,0,0.49867755,290.908,322.3622)"
       inkscape:collect="always"
       xlink:href="#linearGradient4269"
       id="linearGradient4275"
       x1="36.360001"
       y1="400"
       x2="381.82147"
       y2="0"
       gradientUnits="userSpaceOnUse" />
    <linearGradient
       inkscape:collect="always"
       id="linearGradient4269">
      <stop
         style="stop-color:#4e505d;stop-opacity:1;"
         offset="0"
         id="stop4271" />
      <stop
         style="stop-color:#7a859c;stop-opacity:1"
         offset="1"
         id="stop4273" />
    </linearGradient>
    <linearGradient
       inkscape:collect="always"
       xlink:href="#linearGradient4269"
       id="linearGradient4223"
       x1="390.70938"
       y1="521.81268"
       x2="369.89993"
       y2="697.40222"
       gradientUnits="userSpaceOnUse" />
    <linearGradient
       inkscape:collect="always"
       xlink:href="#linearGradient4269"
       id="linearGradient4232"
       x1="384.09039"
       y1="612.19727"
       x2="364.79691"
       y2="780.5274"
       gradientUnits="userSpaceOnUse" />
  </defs>
  <sodipodi:namedview
     id="base"
     pagecolor="#ffffff"
     bordercolor="#666666"
     borderopacity="1.0"
     inkscape:pageopacity="0.0"
     inkscape:pageshadow="2"
     inkscape:zoom="1"
     inkscape:cx="330.21141"
     inkscape:cy="560.25918"
     inkscape:document-units="px"
     inkscape:current-layer="layer1"
     showgrid="false"
     showguides="true"
     inkscape:guide-bbox="true"
     inkscape:window-width="1600"
     inkscape:window-height="837"
     inkscape:window-x="-4"
     inkscape:window-y="-4"
     inkscape:window-maximized="1"
     inkscape:snap-bbox="true"
     inkscape:bbox-nodes="true"
     inkscape:bbox-paths="true">
    <sodipodi:guide
       position="560,730.00002"
       orientation="0,1"
       id="guide3338" />
    <sodipodi:guide
       position="560,330.00001"
       orientation="0,1"
       id="guide3340" />
    <sodipodi:guide
       position="190,475.00001"
       orientation="1,0"
       id="guide3344" />
    <sodipodi:guide
       position="590,451.00001"
       orientation="1,0"
       id="guide3346" />
    <inkscape:grid
       type="xygrid"
       id="grid3440" />
  </sodipodi:namedview>
  <metadata
     id="metadata7">
    <rdf:RDF>
      <cc:Work
         rdf:about="">
        <dc:format>image/svg+xml</dc:format>
        <dc:type
           rdf:resource="http://purl.org/dc/dcmitype/StillImage" />
        <dc:title>active directory</dc:title>
        <dc:date>June 2015</dc:date>
        <dc:creator>
          <cc:Agent>
            <dc:title>Johannes Hechler</dc:title>
          </cc:Agent>
        </dc:creator>
        <dc:rights>
          <cc:Agent>
            <dc:title>Johannes Hechler</dc:title>
          </cc:Agent>
        </dc:rights>
        <dc:publisher>
          <cc:Agent>
            <dc:title>RRZE</dc:title>
          </cc:Agent>
        </dc:publisher>
        <dc:contributor>
          <cc:Agent>
            <dc:title>Ute Weber, Hendrik Eggers, Joanna Barbach</dc:title>
          </cc:Agent>
        </dc:contributor>
        <dc:subject>
          <rdf:Bag>
            <rdf:li>database</rdf:li>
            <rdf:li>symbol</rdf:li>
            <rdf:li>icon</rdf:li>
            <rdf:li>directory</rdf:li>
            <rdf:li>active</rdf:li>
          </rdf:Bag>
        </dc:subject>
        <cc:license
           rdf:resource="http://creativecommons.org/licenses/by-sa/3.0/" />
      </cc:Work>
      <cc:License
         rdf:about="http://creativecommons.org/licenses/by-sa/3.0/">
        <cc:permits
           rdf:resource="http://creativecommons.org/ns#Reproduction" />
        <cc:permits
           rdf:resource="http://creativecommons.org/ns#Distribution" />
        <cc:requires
           rdf:resource="http://creativecommons.org/ns#Notice" />
        <cc:requires
           rdf:resource="http://creativecommons.org/ns#Attribution" />
        <cc:permits
           rdf:resource="http://creativecommons.org/ns#DerivativeWorks" />
        <cc:requires
           rdf:resource="http://creativecommons.org/ns#ShareAlike" />
      </cc:License>
    </rdf:RDF>
  </metadata>
  <g
     inkscape:label="Ebene 1"
     inkscape:groupmode="layer"
     id="layer1">
    <path
       sodipodi:nodetypes="csscccccccccccssssscccccccssssscccscccssssscc"
       inkscape:connector-curvature="0"
       style="color:#000000;clip-rule:nonzero;display:inline;overflow:visible;visibility:visible;opacity:1;isolation:auto;mix-blend-mode:normal;color-interpolation:sRGB;color-interpolation-filters:linearRGB;solid-color:#000000;solid-opacity:1;fill:url(#linearGradient4275);fill-opacity:1;fill-rule:nonzero;stroke:none;stroke-width:36;stroke-linecap:butt;stroke-linejoin:round;stroke-miterlimit:4;stroke-dasharray:none;stroke-dashoffset:0;stroke-opacity:1;color-rendering:auto;image-rendering:auto;shape-rendering:auto;text-rendering:auto;enable-background:accumulate"
       d="m 390.61604,322.3622 c -50.06224,4e-5 -90.64544,14.20668 -90.64475,31.73128 8.8e-4,17.52423 40.5836,31.73027 90.64475,31.73031 50.06155,1.5e-4 90.6449,-14.20595 90.64573,-31.73031 -0.0359,-0.64593 -0.12808,-1.29133 -0.27655,-1.9353 -0.14285,-0.81742 -0.37607,-1.63259 -0.69912,-2.44371 -6.23547,-15.66698 -44.48222,-27.33347 -89.67006,-27.35227 z m -90.64475,49.77036 0,27.38733 c 0.15262,17.48523 40.68504,31.63205 90.63502,31.63389 50.06153,1.4e-4 90.64488,-14.20595 90.64572,-31.73031 l 0,-4.53388 0,4.53386 0,18.03908 c -0.45931,0.41955 -0.92485,0.83236 -1.40313,1.2282 -5.82402,4.82011 -13.30875,8.53579 -22.18211,11.64198 -17.74674,6.21234 -41.18095,9.79823 -67.06048,9.79823 -25.87952,0 -49.31278,-3.58589 -67.05951,-9.79823 -8.87338,-3.10619 -16.3581,-6.82187 -22.18211,-11.64198 -0.47493,-0.39306 -0.93722,-0.80291 -1.3934,-1.21943 l 0,27.4672 c 0.15262,17.48521 40.68504,31.63205 90.63502,31.63388 50.06152,1.6e-4 90.64488,-14.20596 90.64572,-31.7303 l 0,-4.5339 0,4.53389 0,18.03908 c -0.45931,0.41953 -0.92485,0.83234 -1.40313,1.22818 -5.82402,4.82011 -13.30875,8.53581 -22.18211,11.64198 -17.74674,6.21234 -41.18095,9.79823 -67.06048,9.79823 -25.87952,0 -49.31278,-3.58589 -67.05951,-9.79823 -8.87338,-3.10617 -16.3581,-6.82187 -22.18211,-11.64198 -0.47493,-0.39305 -0.93722,-0.80292 -1.3934,-1.21942 l 0,27.12436 c -0.004,0.0228 -0.006,0.0454 -0.01,0.0681 8.8e-4,17.52423 40.58361,31.73027 90.64474,31.73031 50.06117,-4e-5 90.64392,-14.20608 90.64475,-31.73031 l 0.011,0 0,-117.9499 c -0.4593,0.41955 -0.92484,0.83237 -1.40313,1.22818 -5.82401,4.82012 -13.30873,8.53581 -22.18211,11.64199 -17.74672,6.21237 -41.18095,9.79826 -67.06048,9.79826 -25.87952,0 -49.31278,-3.58589 -67.05951,-9.79823 -8.87336,-3.1062 -16.35809,-6.82187 -22.18211,-11.64199 -0.47827,-0.39583 -0.94383,-0.80865 -1.40312,-1.22819 z"
       id="rect4239" />
    <path
       inkscape:connector-curvature="0"
       style="fill:url(#linearGradient4232);fill-opacity:1;stroke:none;stroke-width:41.15159225;stroke-linecap:round;stroke-linejoin:round;stroke-opacity:1"
       d="m 235.31445,618.07617 c -0.0593,0.0524 -0.11264,0.10926 -0.17383,0.16016 l -3.30273,1.78906 C 210.29873,632.78497 196,656.08657 196,692.02734 c 0,7.7196 0.70382,15.19862 2.01758,22.31446 1.9487,4.35943 6.84426,7.55532 12.71094,7.97265 l 0,0.0469 87.19726,0 0,-0.004 c 6.58478,-0.093 12.13077,-3.67587 13.99414,-8.58789 1.24686,-6.94448 1.91211,-14.22869 1.91211,-21.74219 0,-37.62629 -15.75655,-62.11739 -38.91015,-73.67578 -5.52795,3.10372 -12.78612,3.11133 -19.5625,3.11133 -6.97391,1e-5 -14.40721,-0.11307 -20.04493,-3.38672 z m 134,0 c -0.0593,0.0524 -0.11264,0.10926 -0.17383,0.16016 l -3.30273,1.78906 C 344.29873,632.78497 330,656.08657 330,692.02734 c 0,7.7196 0.70382,15.19862 2.01758,22.31446 1.94869,4.35943 6.84426,7.55532 12.71094,7.97265 l 0,0.0469 87.19726,0 0,-0.004 c 6.58478,-0.093 12.13076,-3.67587 13.99414,-8.58789 1.24685,-6.94448 1.91211,-14.22869 1.91211,-21.74219 0,-37.62629 -15.75656,-62.11739 -38.91015,-73.67578 -5.52795,3.10372 -12.78612,3.11133 -19.5625,3.11133 -6.97393,1e-5 -14.40722,-0.11307 -20.04493,-3.38672 z m 136.16797,0 c -0.0593,0.0524 -0.1146,0.10926 -0.17578,0.16016 l -3.30078,1.78906 c -21.53916,12.75958 -35.83789,36.06118 -35.83789,72.00195 0,7.7196 0.70382,15.19862 2.01758,22.31446 1.94869,4.35943 6.84425,7.55532 12.71093,7.97265 l 0,0.0469 87.19532,0 0,-0.004 c 6.58478,-0.093 12.13076,-3.67587 13.99414,-8.58789 C 583.33279,706.82505 584,699.54084 584,692.02734 c 0,-37.62629 -15.75852,-62.11739 -38.91211,-73.67578 -5.52795,3.10372 -12.78612,3.11133 -19.5625,3.11133 -6.97392,10e-6 -14.40526,-0.11307 -20.04297,-3.38672 z"
       id="path4652" />
    <path
       inkscape:connector-curvature="0"
       style="fill:url(#linearGradient4223);fill-opacity:1;stroke:none;stroke-width:14;stroke-miterlimit:4;stroke-dasharray:none;stroke-opacity:1"
       d="m 254.76758,547.84766 c -17.86623,0 -32.34961,14.40397 -32.34961,32.17382 0,17.76985 14.48338,32.17579 32.34961,32.17579 17.86624,0 32.34961,-14.40593 32.34961,-32.17579 0,-17.76985 -14.48337,-32.17382 -32.34961,-32.17382 z m 134,0 c -17.86623,0 -32.34961,14.40397 -32.34961,32.17382 0,17.76985 14.48338,32.17579 32.34961,32.17579 17.86623,0 32.34961,-14.40593 32.34961,-32.17579 0,-17.76985 -14.48338,-32.17382 -32.34961,-32.17382 z m 136.16601,0 c -17.86623,0 -32.34961,14.40397 -32.34961,32.17382 0,17.76985 14.48338,32.17579 32.34961,32.17579 17.86623,0 32.34961,-14.40593 32.34961,-32.17579 0,-17.76985 -14.48338,-32.17382 -32.34961,-32.17382 z"
       id="ellipse4654" />
    <path
       id="path4152"
       d="m 369.31445,618.07617 c -0.0593,0.0524 -0.11264,0.10926 -0.17383,0.16016 l -3.30273,1.78906 C 344.29873,632.78497 330,656.08657 330,692.02734 c 0,7.7196 0.70382,15.19862 2.01758,22.31446 1.94869,4.35943 6.84426,7.55532 12.71094,7.97265 l 0,0.0469 87.19726,0 0,-0.004 c 6.58478,-0.093 12.13076,-3.67587 13.99414,-8.58789 1.24685,-6.94448 1.91211,-14.22869 1.91211,-21.74219 0,-37.62629 -15.75656,-62.11739 -38.91015,-73.67578 -5.52795,3.10372 -12.78612,3.11133 -19.5625,3.11133 -6.97393,1e-5 -14.40722,-0.11307 -20.04493,-3.38672 z"
       style="fill:#99b000;fill-opacity:1;stroke:none;stroke-width:41.15159225;stroke-linecap:round;stroke-linejoin:round;stroke-opacity:1"
       inkscape:connector-curvature="0"
       sodipodi:nodetypes="cccsccccccscscc" />
    <path
       id="path4154"
       d="m 388.76758,547.84766 c -17.86623,0 -32.34961,14.40397 -32.34961,32.17382 0,17.76985 14.48338,32.17579 32.34961,32.17579 17.86623,0 32.34961,-14.40593 32.34961,-32.17579 0,-17.76985 -14.48338,-32.17382 -32.34961,-32.17382 z"
       style="fill:#99b000;fill-opacity:1;stroke:none;stroke-width:14;stroke-miterlimit:4;stroke-dasharray:none;stroke-opacity:1"
       inkscape:connector-curvature="0"
       sodipodi:nodetypes="sssss" />
  </g>
</svg>

<?xml version="1.0" encoding="UTF-8" standalone="no"?>
<!-- Created with Inkscape (http://www.inkscape.org/) -->

<svg
   xmlns:dc="http://purl.org/dc/elements/1.1/"
   xmlns:cc="http://creativecommons.org/ns#"
   xmlns:rdf="http://www.w3.org/1999/02/22-rdf-syntax-ns#"
   xmlns:svg="http://www.w3.org/2000/svg"
   xmlns="http://www.w3.org/2000/svg"
   xmlns:xlink="http://www.w3.org/1999/xlink"
   xmlns:sodipodi="http://sodipodi.sourceforge.net/DTD/sodipodi-0.dtd"
   xmlns:inkscape="http://www.inkscape.org/namespaces/inkscape"
   width="210mm"
   height="297mm"
   viewBox="0 0 744.09448819 1052.3622047"
   id="svg2"
   version="1.1"
   inkscape:version="0.91 r13725"
   inkscape:export-xdpi="4"
   inkscape:export-ydpi="4"
   sodipodi:docname="active-directory.svg">
  <title
     id="title4175">active directory</title>
  <defs
     id="defs4">
    <linearGradient
       gradientTransform="matrix(0.49854025,0,0,0.49867755,290.908,322.3622)"
       inkscape:collect="always"
       xlink:href="#linearGradient4269"
       id="linearGradient4275"
       x1="36.360001"
       y1="400"
       x2="381.82147"
       y2="0"
       gradientUnits="userSpaceOnUse" />
    <linearGradient
       inkscape:collect="always"
       id="linearGradient4269">
      <stop
         style="stop-color:#4e505d;stop-opacity:1;"
         offset="0"
         id="stop4271" />
      <stop
         style="stop-color:#7a859c;stop-opacity:1"
         offset="1"
         id="stop4273" />
    </linearGradient>
    <linearGradient
       inkscape:collect="always"
       xlink:href="#linearGradient4269"
       id="linearGradient4223"
       x1="390.70938"
       y1="521.81268"
       x2="369.89993"
       y2="697.40222"
       gradientUnits="userSpaceOnUse" />
    <linearGradient
       inkscape:collect="always"
       xlink:href="#linearGradient4269"
       id="linearGradient4232"
       x1="384.09039"
       y1="612.19727"
       x2="364.79691"
       y2="780.5274"
       gradientUnits="userSpaceOnUse" />
  </defs>
  <sodipodi:namedview
     id="base"
     pagecolor="#ffffff"
     bordercolor="#666666"
     borderopacity="1.0"
     inkscape:pageopacity="0.0"
     inkscape:pageshadow="2"
     inkscape:zoom="0.50000001"
     inkscape:cx="-498.30543"
     inkscape:cy="724.9566"
     inkscape:document-units="px"
     inkscape:current-layer="layer1"
     showgrid="false"
     showguides="true"
     inkscape:guide-bbox="true"
     inkscape:window-width="1600"
     inkscape:window-height="837"
     inkscape:window-x="-4"
     inkscape:window-y="-4"
     inkscape:window-maximized="1"
     inkscape:snap-bbox="true"
     inkscape:bbox-nodes="true"
     inkscape:bbox-paths="true">
    <sodipodi:guide
       position="560,730.00002"
       orientation="0,1"
       id="guide3338" />
    <sodipodi:guide
       position="560,330.00001"
       orientation="0,1"
       id="guide3340" />
    <sodipodi:guide
       position="190,475.00001"
       orientation="1,0"
       id="guide3344" />
    <sodipodi:guide
       position="590,451.00001"
       orientation="1,0"
       id="guide3346" />
    <inkscape:grid
       type="xygrid"
       id="grid3440" />
  </sodipodi:namedview>
  <metadata
     id="metadata7">
    <rdf:RDF>
      <cc:Work
         rdf:about="">
        <dc:format>image/svg+xml</dc:format>
        <dc:type
           rdf:resource="http://purl.org/dc/dcmitype/StillImage" />
        <dc:title>active directory</dc:title>
        <dc:date>June 2015</dc:date>
        <dc:creator>
          <cc:Agent>
            <dc:title>Johannes Hechler</dc:title>
          </cc:Agent>
        </dc:creator>
        <dc:rights>
          <cc:Agent>
            <dc:title>Johannes Hechler</dc:title>
          </cc:Agent>
        </dc:rights>
        <dc:publisher>
          <cc:Agent>
            <dc:title>RRZE</dc:title>
          </cc:Agent>
        </dc:publisher>
        <dc:contributor>
          <cc:Agent>
            <dc:title>Ute Weber, Hendrik Eggers, Joanna Barbach</dc:title>
          </cc:Agent>
        </dc:contributor>
        <dc:subject>
          <rdf:Bag>
            <rdf:li>database</rdf:li>
            <rdf:li>symbol</rdf:li>
            <rdf:li>icon</rdf:li>
            <rdf:li>directory</rdf:li>
            <rdf:li>active</rdf:li>
          </rdf:Bag>
        </dc:subject>
        <cc:license
           rdf:resource="http://creativecommons.org/licenses/by-sa/3.0/" />
      </cc:Work>
      <cc:License
         rdf:about="http://creativecommons.org/licenses/by-sa/3.0/">
        <cc:permits
           rdf:resource="http://creativecommons.org/ns#Reproduction" />
        <cc:permits
           rdf:resource="http://creativecommons.org/ns#Distribution" />
        <cc:requires
           rdf:resource="http://creativecommons.org/ns#Notice" />
        <cc:requires
           rdf:resource="http://creativecommons.org/ns#Attribution" />
        <cc:permits
           rdf:resource="http://creativecommons.org/ns#DerivativeWorks" />
        <cc:requires
           rdf:resource="http://creativecommons.org/ns#ShareAlike" />
      </cc:License>
    </rdf:RDF>
  </metadata>
  <g
     inkscape:label="Ebene 1"
     inkscape:groupmode="layer"
     id="layer1">
    <g
       id="g4234">
      <path
         id="rect4239"
         d="m 390.61604,322.3622 c -50.06224,4e-5 -90.64544,14.20668 -90.64475,31.73128 8.8e-4,17.52423 40.5836,31.73027 90.64475,31.73031 50.06155,1.5e-4 90.6449,-14.20595 90.64573,-31.73031 -0.0359,-0.64593 -0.12808,-1.29133 -0.27655,-1.9353 -0.14285,-0.81742 -0.37607,-1.63259 -0.69912,-2.44371 -6.23547,-15.66698 -44.48222,-27.33347 -89.67006,-27.35227 z m -90.64475,49.77036 0,27.38733 c 0.15262,17.48523 40.68504,31.63205 90.63502,31.63389 50.06153,1.4e-4 90.64488,-14.20595 90.64572,-31.73031 l 0,-4.53388 0,4.53386 0,18.03908 c -0.45931,0.41955 -0.92485,0.83236 -1.40313,1.2282 -5.82402,4.82011 -13.30875,8.53579 -22.18211,11.64198 -17.74674,6.21234 -41.18095,9.79823 -67.06048,9.79823 -25.87952,0 -49.31278,-3.58589 -67.05951,-9.79823 -8.87338,-3.10619 -16.3581,-6.82187 -22.18211,-11.64198 -0.47493,-0.39306 -0.93722,-0.80291 -1.3934,-1.21943 l 0,27.4672 c 0.15262,17.48521 40.68504,31.63205 90.63502,31.63388 50.06152,1.6e-4 90.64488,-14.20596 90.64572,-31.7303 l 0,-4.5339 0,4.53389 0,18.03908 c -0.45931,0.41953 -0.92485,0.83234 -1.40313,1.22818 -5.82402,4.82011 -13.30875,8.53581 -22.18211,11.64198 -17.74674,6.21234 -41.18095,9.79823 -67.06048,9.79823 -25.87952,0 -49.31278,-3.58589 -67.05951,-9.79823 -8.87338,-3.10617 -16.3581,-6.82187 -22.18211,-11.64198 -0.47493,-0.39305 -0.93722,-0.80292 -1.3934,-1.21942 l 0,27.12436 c -0.004,0.0228 -0.006,0.0454 -0.01,0.0681 8.8e-4,17.52423 40.58361,31.73027 90.64474,31.73031 50.06117,-4e-5 90.64392,-14.20608 90.64475,-31.73031 l 0.011,0 0,-117.9499 c -0.4593,0.41955 -0.92484,0.83237 -1.40313,1.22818 -5.82401,4.82012 -13.30873,8.53581 -22.18211,11.64199 -17.74672,6.21237 -41.18095,9.79826 -67.06048,9.79826 -25.87952,0 -49.31278,-3.58589 -67.05951,-9.79823 -8.87336,-3.1062 -16.35809,-6.82187 -22.18211,-11.64199 -0.47827,-0.39583 -0.94383,-0.80865 -1.40312,-1.22819 z"
         style="color:#000000;clip-rule:nonzero;display:inline;overflow:visible;visibility:visible;opacity:1;isolation:auto;mix-blend-mode:normal;color-interpolation:sRGB;color-interpolation-filters:linearRGB;solid-color:#000000;solid-opacity:1;fill:url(#linearGradient4275);fill-opacity:1;fill-rule:nonzero;stroke:none;stroke-width:36;stroke-linecap:butt;stroke-linejoin:round;stroke-miterlimit:4;stroke-dasharray:none;stroke-dashoffset:0;stroke-opacity:1;color-rendering:auto;image-rendering:auto;shape-rendering:auto;text-rendering:auto;enable-background:accumulate"
         inkscape:connector-curvature="0"
         sodipodi:nodetypes="csscccccccccccssssscccccccssssscccscccssssscc" />
      <path
         id="path4652"
         d="M 235.31445 618.07617 C 235.25515 618.12857 235.20181 618.18543 235.14062 618.23633 L 231.83789 620.02539 C 210.29873 632.78497 196 656.08657 196 692.02734 C 196 699.74694 196.70382 707.22596 198.01758 714.3418 C 199.96628 718.70123 204.86184 721.89712 210.72852 722.31445 L 210.72852 722.36133 L 297.92578 722.36133 L 297.92578 722.35742 C 304.51056 722.26442 310.05655 718.68155 311.91992 713.76953 C 313.16678 706.82505 313.83203 699.54084 313.83203 692.02734 C 313.83203 654.40105 298.07548 629.90995 274.92188 618.35156 C 269.39393 621.45528 262.13576 621.46289 255.35938 621.46289 C 248.38547 621.4629 240.95217 621.34982 235.31445 618.07617 z M 369.31445 618.07617 C 369.25515 618.12857 369.20181 618.18543 369.14062 618.23633 L 365.83789 620.02539 C 344.29873 632.78497 330 656.08657 330 692.02734 C 330 699.74694 330.70382 707.22596 332.01758 714.3418 C 333.96627 718.70123 338.86184 721.89712 344.72852 722.31445 L 344.72852 722.36133 L 431.92578 722.36133 L 431.92578 722.35742 C 438.51056 722.26442 444.05654 718.68155 445.91992 713.76953 C 447.16677 706.82505 447.83203 699.54084 447.83203 692.02734 C 447.83203 654.40105 432.07547 629.90995 408.92188 618.35156 C 403.39393 621.45528 396.13576 621.46289 389.35938 621.46289 C 382.38545 621.4629 374.95216 621.34982 369.31445 618.07617 z M 505.48242 618.07617 C 505.42312 618.12857 505.36782 618.18543 505.30664 618.23633 L 502.00586 620.02539 C 480.4667 632.78497 466.16797 656.08657 466.16797 692.02734 C 466.16797 699.74694 466.87179 707.22596 468.18555 714.3418 C 470.13424 718.70123 475.0298 721.89712 480.89648 722.31445 L 480.89648 722.36133 L 568.0918 722.36133 L 568.0918 722.35742 C 574.67658 722.26442 580.22256 718.68155 582.08594 713.76953 C 583.33279 706.82505 584 699.54084 584 692.02734 C 584 654.40105 568.24148 629.90995 545.08789 618.35156 C 539.55994 621.45528 532.30177 621.46289 525.52539 621.46289 C 518.55147 621.4629 511.12013 621.34982 505.48242 618.07617 z "
         style="fill:url(#linearGradient4232);fill-opacity:1;stroke:none;stroke-width:41.15159225;stroke-linecap:round;stroke-linejoin:round;stroke-opacity:1" />
      <path
         id="ellipse4654"
         d="M 254.76758 547.84766 C 236.90135 547.84766 222.41797 562.25163 222.41797 580.02148 C 222.41797 597.79133 236.90135 612.19727 254.76758 612.19727 C 272.63382 612.19727 287.11719 597.79134 287.11719 580.02148 C 287.11719 562.25163 272.63382 547.84766 254.76758 547.84766 z M 388.76758 547.84766 C 370.90135 547.84766 356.41797 562.25163 356.41797 580.02148 C 356.41797 597.79133 370.90135 612.19727 388.76758 612.19727 C 406.63381 612.19727 421.11719 597.79134 421.11719 580.02148 C 421.11719 562.25163 406.63381 547.84766 388.76758 547.84766 z M 524.93359 547.84766 C 507.06736 547.84766 492.58398 562.25163 492.58398 580.02148 C 492.58398 597.79133 507.06736 612.19727 524.93359 612.19727 C 542.79982 612.19727 557.2832 597.79134 557.2832 580.02148 C 557.2832 562.25163 542.79982 547.84766 524.93359 547.84766 z "
         style="fill:url(#linearGradient4223);fill-opacity:1;stroke:none;stroke-width:14;stroke-miterlimit:4;stroke-dasharray:none;stroke-opacity:1" />
    </g>
  </g>
</svg>
